X:195
T: Branch Line
S: Jack & Charlie Coen: "The Branch Line"
Z: B.Black
M: 2/4
L: 1/8
R: polka
K: G
g/e/ | dG BG | FG A>e | dG Bd | g2 f>e |
dG BG | FG A>e | ed cA | G3 :|
g/a/ | bg/g/ af/f/ | gf ed | bg/g/ af/f/ | g3 a |
bg/g/ af/f/ | gf ed | Bd ef | g3 :|
